icons/njk.svg

<svg width="16" height="16" viewBox="0 0 16 16" fill="none" xmlns="http://www.w3.org/2000/svg">
<path d="M9.62 10.66H10.62V6.1H11.96V11.15C11.9666 11.3132 11.921 11.4743 11.83 11.61C11.7196 11.7807 11.5535 11.9079 11.36 11.97C11.2415 11.9933 11.1207 12.0034 11 12H9.09C8.92935 11.9996 8.77254 11.9508 8.64 11.86C8.47997 11.7452 8.36363 11.5795 8.31 11.39C8.29017 11.2507 8.29017 11.1093 8.31 10.97V9.56L9.65 9.25V10.66H9.62ZM4 4.26H5.32C5.64 5.32 5.96 6.37 6.32 7.42C6.32 6.42 6.32 5.32 6.32 4.26H7.62V12H6.3C5.97 10.88 5.65 9.75 5.3 8.63V12H4V4.26ZM12.5 2H3.5C3.09854 2.01043 2.71703 2.17727 2.43682 2.46496C2.15661 2.75264 1.99986 3.1384 2 3.54V12.54C2.02004 12.9276 2.1857 13.2933 2.46381 13.564C2.74193 13.8347 3.11201 13.9904 3.5 14H12.5C12.8946 13.9899 13.2703 13.8286 13.5495 13.5495C13.8286 13.2703 13.9899 12.8946 14 12.5V3.5C13.9899 3.10537 13.8286 2.72969 13.5495 2.45055C13.2703 2.17141 12.8946 2.01012 12.5 2" fill="#6EAF5D"/>
</svg>

<svg id="Calque_1" data-name="Calque 1" xmlns="http://www.w3.org/2000/svg" viewBox="0 0 16 16"><defs><style>.cls-1{fill:#447c35;}</style></defs><path class="cls-1" d="M9.62,10.66h1V6.1h1.34v5.05a.77.77,0,0,1-.13.46.88.88,0,0,1-.47.36A1.63,1.63,0,0,1,11,12H9.09a.8.8,0,0,1-.45-.14.87.87,0,0,1-.33-.47,1.49,1.49,0,0,1,0-.42V9.56l1.34-.31v1.41M4,4.26H5.32c.32,1.06.64,2.11,1,3.16,0-1,0-2.1,0-3.16H7.62V12H6.3c-.33-1.12-.65-2.25-1-3.37V12H4V4.26M12.5,2l-9,0A1.54,1.54,0,0,0,2,3.54v9A1.54,1.54,0,0,0,3.5,14h9A1.54,1.54,0,0,0,14,12.5v-9A1.54,1.54,0,0,0,12.5,2"/></svg>
